.local/share/icons/Gruvbox-Plus-Dark/panel/22/veracrypt-panel.svg

<svg xmlns="http://www.w3.org/2000/svg" width="22" height="22" version="1.1">
 <defs>
  <style id="current-color-scheme" type="text/css">
   .ColorScheme-Text { color:#ebdbb2; } .ColorScheme-Highlight { color:#458588; }
  </style>
 </defs>
 <path style="fill:currentColor;opacity:0.3" class="ColorScheme-Text" d="M 2 3 L 6.4492188 19 L 6.7402344 18.044922 L 8.3554688 11.015625 L 8.4414062 11.015625 L 6.3007812 3 L 2 3 z"/>
 <path style="fill:currentColor;opacity:0.15" class="ColorScheme-Text" d="m 12.035877,11.019838 -3.6795694,-0.0049 -1.6153846,7.029384 -0.2923077,0.955077 4.1588307,-7e-6 c 1.687754,-7.318154 1.4288,-7.980154 1.4288,-7.980154 z"/>
 <path style="fill:currentColor" class="ColorScheme-Text" d="M 11.038461,3.0000005 8.4394615,11.015539 10.6,19 h 8.631384 L 17.38523,15 h -3.7 L 12.562539,11.015539 13.992923,7 h 3.392307 l 1.846154,-3.9999995 z"/>
</svg>

<svg width="22" height="22" version="1.1" xmlns="http://www.w3.org/2000/svg">
  <defs>
    <style id="current-color-scheme" type="text/css">.ColorScheme-Text { color:#ebdbb2; } .ColorScheme-Highlight { color:#458588; } .ColorScheme-NeutralText { color:#fe8019; } .ColorScheme-PositiveText { color:#689d6a; } .ColorScheme-NegativeText { color:#fb4934; }</style>
  </defs>
  <path class="ColorScheme-Text" d="m2 3 4.449 16 0.291-0.9551 1.615-7.029h0.08594l-2.141-8.016h-4.301z" fill="currentColor" opacity=".3"/>
  <path class="ColorScheme-Text" d="m12.04 11.02-3.68-0.0049-1.615 7.029-0.2923 0.9551 4.159-7e-6c1.688-7.318 1.429-7.98 1.429-7.98z" fill="currentColor" opacity=".15"/>
  <path class="ColorScheme-Text" d="m11.04 3-2.599 8.016 2.161 7.984h8.631l-1.846-4h-3.7l-1.123-3.984 1.43-4.016h3.392l1.846-4z" fill="currentColor"/>
</svg>
